svg/building/store_line.svg

<?xml version="1.0" encoding="UTF-8"?>
<svg width="24px" height="24px" viewBox="0 0 24 24" version="1.1" xmlns="http://www.w3.org/2000/svg" xmlns:xlink="http://www.w3.org/1999/xlink">
    <title>store_line</title>
    <g id="页面-1" stroke="none" stroke-width="1" fill="none" fill-rule="evenodd">
        <g id="Building" transform="translate(-864.000000, 0.000000)">
            <g id="store_line" transform="translate(864.000000, 0.000000)">
                 <path d="M24,0 L24,24 L0,24 L0,0 L24,0 Z M12.5934901,23.257841 L12.5819402,23.2595131 L12.5108777,23.2950439 L12.4918791,23.2987469 L12.4918791,23.2987469 L12.4767152,23.2950439 L12.4056548,23.2595131 C12.3958229,23.2563662 12.3870493,23.2590235 12.3821421,23.2649074 L12.3780323,23.275831 L12.360941,23.7031097 L12.3658947,23.7234994 L12.3769048,23.7357139 L12.4804777,23.8096931 L12.4953491,23.8136134 L12.4953491,23.8136134 L12.5071152,23.8096931 L12.6106902,23.7357139 L12.6232938,23.7196733 L12.6232938,23.7196733 L12.6266527,23.7031097 L12.609561,23.275831 C12.6075724,23.2657013 12.6010112,23.2592993 12.5934901,23.257841 L12.5934901,23.257841 Z M12.8583906,23.1452862 L12.8445485,23.1473072 L12.6598443,23.2396597 L12.6498822,23.2499052 L12.6498822,23.2499052 L12.6471943,23.2611114 L12.6650943,23.6906389 L12.6699349,23.7034178 L12.6699349,23.7034178 L12.678386,23.7104931 L12.8793402,23.8032389 C12.8914285,23.8068999 12.9022333,23.8029875 12.9078286,23.7952264 L12.9118235,23.7811639 L12.8776777,23.1665331 C12.8752882,23.1545897 12.8674102,23.1470016 12.8583906,23.1452862 L12.8583906,23.1452862 Z M12.1430473,23.1473072 C12.1332178,23.1423925 12.1221763,23.1452606 12.1156365,23.1525954 L12.1099173,23.1665331 L12.0757714,23.7811639 C12.0751323,23.7926639 12.0828099,23.8018602 12.0926481,23.8045676 L12.108256,23.8032389 L12.3092106,23.7104931 L12.3186497,23.7024347 L12.3186497,23.7024347 L12.3225043,23.6906389 L12.340401,23.2611114 L12.337245,23.2485176 L12.337245,23.2485176 L12.3277531,23.2396597 L12.1430473,23.1473072 Z" id="MingCute" fill-rule="nonzero"></path>
                <path d="M17.5,3 C18.1295,3 18.7223,3.29639 19.1,3.8 L21.788,7.384 C21.9317,7.57559 21.9947,7.79073 21.9917,8 L22,8 L22,9 C22,10.0144 21.6224,10.9407 21,11.6458 L21,19 C21,20.1046 20.1046,21 19,21 L5,21 C3.89543,21 3,20.1046 3,19 L3,11.6458 C2.37764,10.9407 2,10.0144 2,9 L2,8 L2.00825,8 C2.00528,7.79074 2.06829,7.57561 2.212,7.384 L4.9,3.8 C5.27771,3.29639 5.87049,3 6.5,3 L17.5,3 Z M15,11.6458 C14.2671,12.4762 13.1947,13 12,13 C10.8053,13 9.73295,12.4762 9,11.6458 C8.26706,12.4762 7.19469,13 6,13 C5.741025,13 5.48779875,12.9753625 5.24253187,12.9283656 L5,12.874 L5,19 L19,19 L19,12.874 L18.7574766,12.9283656 C18.5122125,12.9753625 18.258975,13 18,13 C16.8053,13 15.7329,12.4762 15,11.6458 Z M20,9 L16,9 C16,10.1046 16.8954,11 18,11 C19.0543909,11 19.9181678,10.18415 19.9945144,9.14926613 L20,9 Z M14,9 L10,9 C10,10.1046 10.8954,11 12,11 C13.0543909,11 13.9181678,10.18415 13.9945144,9.14926613 L14,9 Z M8,9 L4,9 C4,10.1046 4.89543,11 6,11 C7.05436227,11 7.91816517,10.18415 7.99451427,9.14926613 L8,9 Z M17.5,5 L6.5,5 L5,7 L19,7 L17.5,5 Z" id="形状" fill="#09244B"></path>
            </g>
        </g>
    </g>
</svg>

<svg xmlns="http://www.w3.org/2000/svg" width="24" height="24"><g fill="none" fill-rule="evenodd"><path d="M24 0v24H0V0h24ZM12.593 23.258l-.011.002-.071.035-.02.004-.014-.004-.071-.035c-.01-.004-.019-.001-.024.005l-.004.01-.017.428.005.02.01.013.104.074.015.004.012-.004.104-.074.012-.016.004-.017-.017-.427c-.002-.01-.009-.017-.017-.018Zm.265-.113-.013.002-.185.093-.01.01-.003.011.018.43.005.012.008.007.201.093c.012.004.023 0 .029-.008l.004-.014-.034-.614c-.003-.012-.01-.02-.02-.022Zm-.715.002a.023.023 0 0 0-.027.006l-.006.014-.034.614c0 .012.007.02.017.024l.015-.002.201-.093.01-.008.004-.011.017-.43-.003-.012-.01-.01-.184-.092Z"/><path fill="#09244B" d="M17.5 3a2 2 0 0 1 1.6.8l2.688 3.584a.995.995 0 0 1 .204.616H22v1c0 1.014-.378 1.94-1 2.646V19a2 2 0 0 1-2 2H5a2 2 0 0 1-2-2v-7.354A3.985 3.985 0 0 1 2 9V8h.008a.995.995 0 0 1 .204-.616L4.9 3.8A2 2 0 0 1 6.5 3h11ZM15 11.646A3.99 3.99 0 0 1 12 13a3.99 3.99 0 0 1-3-1.354 3.99 3.99 0 0 1-3.757 1.282L5 12.874V19h14v-6.126l-.243.054A3.99 3.99 0 0 1 15 11.645ZM20 9h-4a2 2 0 0 0 3.995.15L20 9Zm-6 0h-4a2 2 0 0 0 3.995.15L14 9ZM8 9H4a2 2 0 0 0 3.995.15L8 9Zm9.5-4h-11L5 7h14l-1.5-2Z"/></g></svg>
